fs/auto_fit_height_24_regular.svg

<svg viewBox="0 0 24 24" fill="none" xmlns="http://www.w3.org/2000/svg" height="1em" width="1em">
  <path d="M5.75 3C5.33579 3 5 3.33579 5 3.75C5 4.16421 5.33579 4.5 5.75 4.5H18.25C18.6642 4.5 19 4.16421 19 3.75C19 3.33579 18.6642 3 18.25 3H5.75ZM9.22162 14.2188C9.48789 13.9526 9.90455 13.9284 10.1982 14.1462L10.2823 14.2188L11.502 15.44V12.3691L11.5 12.3437V8.56L10.2803 9.78115L10.1962 9.85377C9.9026 10.0716 9.48594 10.0474 9.21967 9.78115C8.9534 9.51488 8.9292 9.09822 9.14705 8.80461L9.21967 8.72049L11.5871 6.35039C11.7128 6.14201 11.9629 6 12.2509 6C12.503 6 12.726 6.10886 12.862 6.27578L12.9148 6.35073L15.282 8.72049L15.3546 8.80461C15.5482 9.0656 15.5506 9.42381 15.3618 9.6872L15.282 9.78115L15.1979 9.85377C14.9369 10.0474 14.5787 10.0498 14.3153 9.86094L14.2213 9.78115L13 8.56V11.6308L13.002 11.6562V15.44L14.2233 14.2188C14.4895 13.9526 14.9062 13.9284 15.1998 14.1462L15.2839 14.2188C15.5502 14.4851 15.5744 14.9018 15.3565 15.1954L15.2839 15.2795L12.9167 17.6493C12.7911 17.8578 12.541 18 12.2529 18C11.9649 18 11.7147 17.858 11.589 17.6496L9.22162 15.2795C8.92873 14.9866 8.92873 14.5117 9.22162 14.2188ZM5 20.25C5 19.8358 5.33579 19.5 5.75 19.5H18.25C18.6642 19.5 19 19.8358 19 20.25C19 20.6642 18.6642 21 18.25 21H5.75C5.33579 21 5 20.6642 5 20.25Z" fill="#212121"/>
</svg>

<svg viewBox="0 0 24 24" fill="none" xmlns="http://www.w3.org/2000/svg" height="1em" width="1em">
  <path d="M5.75 3a.75.75 0 0 0 0 1.5h12.5a.75.75 0 0 0 0-1.5H5.75Zm3.472 11.219a.75.75 0 0 1 .976-.073l.084.073 1.22 1.221v-3.07l-.002-.026V8.56l-1.22 1.221-.084.073a.75.75 0 0 1-1.049-1.05l.073-.084 2.367-2.37a.77.77 0 0 1 .664-.35c.252 0 .475.109.611.276l.053.075 2.367 2.37.073.084a.75.75 0 0 1 .007.882l-.08.094-.084.073a.75.75 0 0 1-.883.007l-.094-.08L13 8.56v3.07l.002.026v3.784l1.221-1.221a.75.75 0 0 1 .977-.073l.084.073a.75.75 0 0 1 .072.976l-.072.085-2.367 2.37a.77.77 0 0 1-.664.35.77.77 0 0 1-.664-.35l-2.367-2.37a.75.75 0 0 1 0-1.061ZM5 20.25a.75.75 0 0 1 .75-.75h12.5a.75.75 0 0 1 0 1.5H5.75a.75.75 0 0 1-.75-.75Z" fill="#212121"/>
</svg>
